X:82
T:Janet of Carterhaugh
T:not so good as our own set
Z:Jack Campin - http://www.campin.me.uk
S:Blaikie MS (NLS MS.1578) p24, Blaikie #76
M:6/8
L:1/8
V:1 midi program 1 74
V:2 midi program 1 46 bass middle = d transpose -24
Q:3/8=86
K:G
[V:1]   DEG GGB|G2G G2 A   |B2d d2c|   B3 d2
[V:2]   G3  g3 |g3  b2 a   |g3  f3 |   g3 G2
%
[V:1] G|c2c B2B|A2G E2 D/E/|G2G E2D|{D}E3 G3|]
[V:2] z|f3  g3 |a2b c'2z   |g2G c2B|   c3 G3|]
W:Transcription (c) Jack Campin 2009, no mirroring or republication without permission

